resources/icons/wallets/arkconnect.svg

<svg viewBox="0 0 44 45" fill="none" xmlns="http://www.w3.org/2000/svg">
<path fill-rule="evenodd" clip-rule="evenodd" d="M0 22.6271C0 10.4819 9.85242 0.631348 22 0.631348C34.1476 0.631348 44 10.4819 44 22.6271C44 26.433 43.0372 30.015 41.3242 33.1381C40.115 35.3545 37.1369 35.4105 35.4127 33.5747L22.0336 19.3698L8.56489 33.5635C6.82952 35.3881 3.8626 35.3209 2.65344 33.1157C0.96285 29.9927 0 26.4218 0 22.6271ZM40.2046 22.6271C40.2046 12.5751 32.0539 4.42604 22 4.42604C11.9461 4.42604 3.79542 12.5751 3.79542 22.6271C3.79542 24.6532 4.1201 26.142 4.73588 27.6308C5.25089 28.8845 6.95267 28.9293 7.6916 27.7987L22.0336 5.55662L36.2972 27.8323C37.0249 28.974 38.7379 28.9293 39.2529 27.6755C39.8687 26.1756 40.2046 24.6644 40.2046 22.6271Z" fill="currentColor"/>
<path fill-rule="evenodd" clip-rule="evenodd" d="M17.7244 29.8288L22.0349 25.4073L26.2893 29.8288H17.7244Z" fill="currentColor"/>
<path d="M8.28493 39.8404C12.0468 42.8403 16.8162 44.6313 21.9999 44.6313C27.1837 44.6313 31.9531 42.8403 35.715 39.8404L29.3669 33.1017H14.633L8.28493 39.8404Z" fill="currentColor"/>
</svg>

<svg viewBox="0 0 44 45" fill="none" xmlns="http://www.w3.org/2000/svg"><path fill-rule="evenodd" clip-rule="evenodd" d="M0 22.627C0 10.482 9.852.631 22 .631s22 9.85 22 21.996c0 3.806-.963 7.388-2.676 10.511-1.209 2.217-4.187 2.273-5.911.437L22.033 19.37 8.566 33.563c-1.735 1.825-4.702 1.758-5.912-.447A21.964 21.964 0 0 1 0 22.627Zm40.205 0c0-10.052-8.151-18.201-18.205-18.201-10.054 0-18.205 8.15-18.205 18.201 0 2.026.325 3.515.94 5.004.516 1.253 2.218 1.298 2.957.168L22.034 5.557l14.263 22.275c.728 1.142 2.44 1.097 2.956-.157.616-1.5.952-3.01.952-5.048Z" fill="currentColor"/><path fill-rule="evenodd" clip-rule="evenodd" d="m17.724 29.829 4.31-4.422 4.255 4.422h-8.565Z" fill="currentColor"/><path d="M8.285 39.84c3.762 3 8.531 4.791 13.715 4.791 5.184 0 9.953-1.79 13.715-4.79l-6.348-6.74H14.633l-6.348 6.74Z" fill="currentColor"/></svg>
